public/icons/like.svg

<svg width="15" height="15" viewBox="0 0 15 15" fill="none" xmlns="http://www.w3.org/2000/svg">
<path d="M7.068 2.90673L7.49998 3.648L7.93199 2.90674C8.78458 1.44383 10.4273 0.905561 11.878 1.21536C13.3085 1.52085 14.5 2.63806 14.5 4.49498C14.5 5.75914 13.7392 7.11185 12.3768 8.70715C11.368 9.8884 10.0871 11.1401 8.66117 12.5334C8.2835 12.9024 7.89566 13.2814 7.50003 13.6716C7.10348 13.2805 6.71476 12.9006 6.33625 12.5307C4.91159 11.1385 3.6316 9.88764 2.62341 8.70714C1.26094 7.11181 0.5 5.75912 0.5 4.49498C0.5 2.64426 1.68917 1.52087 3.11813 1.21105C4.56548 0.897242 6.20801 1.43098 7.068 2.90673Z" stroke="#EB478C"/>
</svg>

<svg width="15" height="15" fill="none" xmlns="http://www.w3.org/2000/svg"><path d="m7.068 2.907.432.741.432-.741c.853-1.463 2.495-2.001 3.946-1.692 1.43.306 2.622 1.423 2.622 3.28 0 1.264-.76 2.617-2.123 4.212-1.009 1.181-2.29 2.433-3.716 3.826-.377.37-.765.748-1.161 1.139a352.7 352.7 0 0 0-1.164-1.141c-1.424-1.393-2.704-2.643-3.713-3.824C1.261 7.112.5 5.76.5 4.495c0-1.85 1.19-2.974 2.618-3.284 1.447-.314 3.09.22 3.95 1.696z" stroke="#EB478C"/></svg>
